X: 10682
M: 2/4
L: 1/16
K: G
d>Bc>A G>gf>e | (ed)d>d d2c>B | A>ce>d c>BA>G | F>AG>E D>AB>c |\
d>Bc>A G>gf>e | e>dd>d d>gf>e | d>Bc>A B>GA>F | G2B2G2 H|]
|: c>B |\
g>bf>a e>gd>f | c>eB>d A>cG>B | A2A>B A>GA>B | G2B2"^D.C."G2 :|


